X:055
L:1/8
M:C|
K:Gm
g2 (bg) dgbg | f2 (af) cfaf | g2 (bg) dgbg | agfa g2 (ga) |
((3bag) ((3agf) gfgd | AFFA cAFA | DGGF DGGg | gdcA (BG) G2 |]

